packages/sources/icons/src/vitamix/t-shirt-fill.svg

<svg width="16" height="16" viewBox="0 0 16 16" fill="none" xmlns="http://www.w3.org/2000/svg">
<path d="M14 2C14.3682 2 14.6667 2.29848 14.6667 2.66667V7.33333C14.6667 7.70152 14.3682 8 14 8H12.666L12.6667 13.3333C12.6667 13.7015 12.3682 14 12 14H4C3.63181 14 3.33334 13.7015 3.33334 13.3333L3.33267 7.99933L2 8C1.63181 8 1.33334 7.70152 1.33334 7.33333V2.66667C1.33334 2.29848 1.63181 2 2 2H6C6 3.10457 6.89543 4 8 4C9.10457 4 10 3.10457 10 2H14Z" fill="#001018"/>
</svg>

<svg width="16" height="16" fill="none" xmlns="http://www.w3.org/2000/svg"><path d="M14 2c.368 0 .667.298.667.667v4.666A.667.667 0 0 1 14 8h-1.334v5.333A.667.667 0 0 1 12 14H4a.667.667 0 0 1-.667-.667V8H2a.667.667 0 0 1-.667-.667V2.667C1.333 2.298 1.632 2 2 2h4a2 2 0 1 0 4 0h4z" fill="#001018"/></svg>
